X: 46
T: Apple Blossom
C:Traditional
B: canberra pickers and fiddlers
B: old time tunes update
B: tunes
L:1/8
Q: 1/4=100
K:D
V:1 
|: [Af]a-a2 a2 ba | [Af]e df ed B2 | [Bf]b-b2 b2 aa | [Af]e df ed [d2f2] | 
[Af]a-a2 a2 ba | "^* See alt A"[Af]e df ed BA | Bd- dB A2 FE | DF ED B,D [DD]2 :|
|: A,2 B,2 D2-DE | FE DE FE DB, | A,A,- A,B, D2- DE | FE DA, !uppermordent!B,2 A,2- |
A,2 [A,D]B, [D2A2] DE | [AE]F- FF ED DD | [DB]d- dB A2 FE | DF ED B,D D2 :|
||"^* Alt A"ef af ed BA | dc dB A2 FE | DF ED B,D [DD]2 || 
% abcbook-tune_id 6710dfbef21bdd11548096b5
% abcbook-tune_composer_id 
% abcbook-boost 0
% abcbook-difficulty 0
% abcbook-tags old time tunes
% abcbook-tablature 
% abcbook-transpose 
% abcbook-tuning ADAE
% abcbook-lastupdated 1739277524365
% abcbook-src-url 
% abcbook-soundfonts 
% abcbook-repeats 1


